Icons/src/apps/scalable/kodi.svg

<?xml version="1.0" encoding="UTF-8" standalone="no"?>
<svg
   xmlns:dc="http://purl.org/dc/elements/1.1/"
   xmlns:cc="http://creativecommons.org/ns#"
   xmlns:rdf="http://www.w3.org/1999/02/22-rdf-syntax-ns#"
   xmlns:svg="http://www.w3.org/2000/svg"
   xmlns="http://www.w3.org/2000/svg"
   xmlns:sodipodi="http://sodipodi.sourceforge.net/DTD/sodipodi-0.dtd"
   xmlns:inkscape="http://www.inkscape.org/namespaces/inkscape"
   width="64"
   height="64"
   version="1.1"
   id="svg30"
   sodipodi:docname="kodi.svg"
   inkscape:version="1.0.2 (e86c870879, 2021-01-15)">
  <metadata
     id="metadata34">
    <rdf:RDF>
      <cc:Work
         rdf:about="">
        <dc:format>image/svg+xml</dc:format>
        <dc:type
           rdf:resource="http://purl.org/dc/dcmitype/StillImage" />
        <dc:title></dc:title>
      </cc:Work>
    </rdf:RDF>
  </metadata>
  <sodipodi:namedview
     pagecolor="#ffffff"
     bordercolor="#666666"
     borderopacity="1"
     objecttolerance="10"
     gridtolerance="10"
     guidetolerance="10"
     inkscape:pageopacity="0"
     inkscape:pageshadow="2"
     inkscape:window-width="1920"
     inkscape:window-height="935"
     id="namedview32"
     showgrid="false"
     inkscape:zoom="6.0546875"
     inkscape:cx="23.25735"
     inkscape:cy="34.797705"
     inkscape:window-x="0"
     inkscape:window-y="38"
     inkscape:window-maximized="1"
     inkscape:current-layer="svg30" />
  <defs
     id="defs10">
    <filter
       id="filter878"
       x="-.059999"
       y="-.060001"
       width="1.12"
       height="1.12"
       color-interpolation-filters="sRGB">
      <feGaussianBlur
         stdDeviation="0.99153842"
         id="feGaussianBlur2" />
    </filter>
    <linearGradient
       id="linearGradient895"
       x1="399.12"
       x2="399.12"
       y1="542.92"
       y2="520.64"
       gradientTransform="matrix(2.1429,0,0,2.1429,-827.25755,-1125.2786)"
       gradientUnits="userSpaceOnUse">
      <stop
         stop-color="#197ff1"
         offset="0"
         id="stop5" />
      <stop
         stop-color="#21c6fb"
         offset="1"
         id="stop7" />
    </linearGradient>
    <filter
       id="filter2761"
       x="-.024"
       y="-.024"
       width="1.048"
       height="1.048"
       color-interpolation-filters="sRGB">
      <feGaussianBlur
         stdDeviation="0.14552168"
         id="feGaussianBlur2-3" />
    </filter>
    <linearGradient
       id="linearGradient1024"
       x1="1.3315"
       x2="15.65"
       y1="15.576"
       y2="1.17"
       gradientUnits="userSpaceOnUse"
       gradientTransform="translate(0.7523229,-6.0494795)">
      <stop
         stop-color="#00c8ff"
         offset="0"
         id="stop5-6" />
      <stop
         stop-color="#14a0ff"
         offset="1"
         id="stop7-7" />
    </linearGradient>
    <filter
       id="filter914"
       x="-.085107"
       y="-.082922"
       width="1.1702"
       height="1.1658"
       color-interpolation-filters="sRGB">
      <feGaussianBlur
         stdDeviation="0.33551342"
         id="feGaussianBlur10" />
    </filter>
    <style
       type="text/css"
       id="style862" />
    <filter
       id="filter1057"
       x="-.027"
       y="-.027"
       width="1.054"
       height="1.054"
       color-interpolation-filters="sRGB">
      <feGaussianBlur
         stdDeviation="0.61875"
         id="feGaussianBlur864" />
    </filter>
    <linearGradient
       id="linearGradient1053"
       x1="-127"
       x2="-72"
       y1="60"
       y2="5"
       gradientTransform="translate(131.5,-0.51000031)"
       gradientUnits="userSpaceOnUse">
      <stop
         stop-color="#32d7ff"
         offset="0"
         id="stop867" />
      <stop
         stop-color="#329bff"
         offset="1"
         id="stop869" />
    </linearGradient>
    <style
       type="text/css"
       id="style872" />
    <style
       type="text/css"
       id="style874" />
    <style
       type="text/css"
       id="style876" />
    <style
       type="text/css"
       id="style878" />
    <style
       type="text/css"
       id="style880" />
    <style
       type="text/css"
       id="style882" />
    <style
       type="text/css"
       id="style884" />
  </defs>
  <rect
     x="4.4999995"
     y="4.4999995"
     width="55"
     height="55"
     ry="15"
     fill="#141414"
     filter="url(#filter1057)"
     opacity="0.3"
     stroke-linecap="round"
     stroke-width="2.7444"
     id="rect900" />
  <rect
     x="4.5"
     y="4.5"
     width="55"
     height="55"
     ry="15"
     fill="url(#linearGradient1053)"
     stroke-linecap="round"
     stroke-width="2.7444"
     id="rect902"
     style="fill:url(#linearGradient1053)" />
  <path
     d="m32 12.17c-0.723 0-1.446 0.27608-2 0.83008l-6.0762 6.0762v16.154l16.152-16.154-6.0762-6.0762c-0.554-0.554-1.277-0.83008-2-0.83008zm12.924 11.754-8.0781 8.0762 8.0781 8.0762 6.0762-6.0762c1.108-1.108 1.108-2.892 0-4l-6.0762-6.0762zm-27.463 1.6152-4.4609 4.4609c-1.108 1.108-1.108 2.892 0 4l4.4609 4.4609v-12.922zm14.539 11.307-8.0762 8.0781 6.0762 6.0762c1.108 1.108 2.892 1.108 4 0l6.0762-6.0762-8.0762-8.0781z"
     filter="url(#filter878)"
     opacity=".25"
     stroke-width="1.6154"
     id="path26" />
  <path
     d="m32 12.17c-0.723 0-1.446 0.27608-2 0.83008l-6.0762 6.0762v16.154l16.152-16.154-6.0762-6.0762c-0.554-0.554-1.277-0.83008-2-0.83008zm12.924 11.754-8.0781 8.0762 8.0781 8.0762 6.0762-6.0762c1.108-1.108 1.108-2.892 0-4l-6.0762-6.0762zm-27.463 1.6152-4.4609 4.4609c-1.108 1.108-1.108 2.892 0 4l4.4609 4.4609v-12.922zm14.539 11.307-8.0762 8.0781 6.0762 6.0762c1.108 1.108 2.892 1.108 4 0l6.0762-6.0762-8.0762-8.0781z"
     fill="#fff"
     stroke-width="1.6154"
     id="path28" />
  <circle
     cx="-1261.1711"
     cy="-1279.3"
     r="0"
     fill="#5e4aa6"
     id="circle888"
     style="stroke-width:1" />
  <circle
     cx="-1142.7177"
     cy="-1318.5997"
     r="0"
     id="circle890"
     style="fill:#5e4aa6;stroke-width:1.00001" />
  <circle
     cx="-43.179306"
     cy="-53.108513"
     r="0"
     fill-rule="evenodd"
     id="circle892"
     style="fill:#5e4aa6;stroke-width:1.00001" />
  <circle
     cx="-1064.2153"
     cy="-1390.1099"
     r="0"
     id="circle894"
     style="fill:#5e4aa6;stroke-width:1.00001" />
  <circle
     cx="35.320011"
     cy="-124.58192"
     r="0"
     fill-rule="evenodd"
     id="circle896"
     style="fill:#5e4aa6;stroke-width:1.00001" />
</svg>

<?xml version="1.0" encoding="UTF-8"?>
<svg width="64" height="64" version="1.1" xmlns="http://www.w3.org/2000/svg">
 <g>
  <path transform="scale(3.7796)" d="M4.37.53C2.254.53.53 2.312.53 4.496v8.468c0 2.184 1.725 3.968 3.84 3.968h8.194c2.114 0 3.84-1.783 3.84-3.968V4.497c0-2.184-1.726-3.968-3.84-3.968zm.256.52h7.681c1.844 0 3.33 1.534 3.33 3.44v7.937c0 1.906-1.485 3.44-3.33 3.44h-7.68c-1.845 0-3.33-1.534-3.33-3.44V4.49c0-1.906 1.485-3.44 3.33-3.44z" opacity=".01" style="font-feature-settings:normal;font-variant-alternates:normal;font-variant-caps:normal;font-variant-east-asian:normal;font-variant-ligatures:normal;font-variant-numeric:normal;font-variant-position:normal;font-variation-settings:normal;inline-size:0;isolation:auto;mix-blend-mode:normal;shape-margin:0;shape-padding:0;text-decoration-color:#000;text-decoration-line:none;text-decoration-style:solid;text-indent:0;text-orientation:mixed;text-transform:none;white-space:normal"/>
  <path transform="scale(3.7796)" d="M4.359.794C2.392.794.795 2.447.795 4.48v8.5c0 2.035 1.597 3.688 3.564 3.688h8.216c1.967 0 3.564-1.653 3.564-3.688v-8.5c0-2.034-1.597-3.687-3.564-3.687zm.272.256h7.672c1.842 0 3.325 1.534 3.325 3.44v7.937c0 1.906-1.483 3.44-3.325 3.44H4.63c-1.842 0-3.325-1.534-3.325-3.44V4.49c0-1.906 1.483-3.44 3.325-3.44z" opacity=".01" style="font-feature-settings:normal;font-variant-alternates:normal;font-variant-caps:normal;font-variant-east-asian:normal;font-variant-ligatures:normal;font-variant-numeric:normal;font-variant-position:normal;font-variation-settings:normal;inline-size:0;isolation:auto;mix-blend-mode:normal;shape-margin:0;shape-padding:0;text-decoration-color:#000;text-decoration-line:none;text-decoration-style:solid;text-indent:0;text-orientation:mixed;text-transform:none;white-space:normal"/>
  <path transform="scale(3.7796)" d="M4.31 1.058c-1.866 0-3.375 1.539-3.375 3.44v8.467c0 1.9 1.57 3.439 3.435 3.439h8.2c1.866 0 3.427-1.538 3.427-3.44V4.498c0-1.9-1.51-3.439-3.375-3.439h-.097c1.794.087 3.214 1.582 3.214 3.432v7.937c0 1.906-1.506 3.44-3.377 3.44h-7.79c-1.871 0-3.377-1.534-3.377-3.44V4.49c0-1.85 1.42-3.345 3.214-3.432z" opacity=".03" style="font-feature-settings:normal;font-variant-alternates:normal;font-variant-caps:normal;font-variant-east-asian:normal;font-variant-ligatures:normal;font-variant-numeric:normal;font-variant-position:normal;font-variation-settings:normal;inline-size:0;isolation:auto;mix-blend-mode:normal;shape-margin:0;shape-padding:0;text-decoration-color:#000;text-decoration-line:none;text-decoration-style:solid;text-indent:0;text-orientation:mixed;text-transform:none;white-space:normal"/>
  <path d="M4 46.969V49c0 6.648 5.896 12 12.544 12h30.961C54.153 61 60 55.648 60 49v-1.992a12.972 12.972 0 0 1-13 12.963H17.002A12.973 12.973 0 0 1 4 46.969z" opacity=".03" style="font-feature-settings:normal;font-variant-alternates:normal;font-variant-caps:normal;font-variant-east-asian:normal;font-variant-ligatures:normal;font-variant-numeric:normal;font-variant-position:normal;font-variation-settings:normal;inline-size:0;isolation:auto;mix-blend-mode:normal;shape-margin:0;shape-padding:0;text-decoration-color:#000;text-decoration-line:none;text-decoration-style:solid;text-indent:0;text-orientation:mixed;text-transform:none;white-space:normal"/>
  <path transform="scale(3.7796)" d="M1.058 11.906v.592c0 1.939 1.573 3.5 3.332 3.5h8.16c1.76 0 3.325-1.561 3.325-3.5v-.58c-.006 2.095-1.537 3.78-3.44 3.78H4.498c-1.905 0-3.44-1.692-3.44-3.792z" opacity=".05" style="font-feature-settings:normal;font-variant-alternates:normal;font-variant-caps:normal;font-variant-east-asian:normal;font-variant-ligatures:normal;font-variant-numeric:normal;font-variant-position:normal;font-variation-settings:normal;inline-size:0;isolation:auto;mix-blend-mode:normal;shape-margin:0;shape-padding:0;text-decoration-color:#000;text-decoration-line:none;text-decoration-style:solid;text-indent:0;text-orientation:mixed;text-transform:none;white-space:normal"/>
 </g>
 <rect x="4" y="4" width="56" height="56" rx="13.002" ry="13.002" fill="#20c0fa"/>
 <path d="M32 12.17c-.723 0-1.446.276-2 .83l-6.076 6.076V35.23l16.152-16.154L34 13a2.819 2.819 0 0 0-2-.83zm12.924 11.754L36.846 32l8.078 8.076L51 34a2.822 2.822 0 0 0 0-4l-6.076-6.076zm-27.463 1.615L13.001 30a2.822 2.822 0 0 0 0 4l4.46 4.461V25.539zM32 36.846l-8.076 8.078L30 51.001a2.822 2.822 0 0 0 4 0l6.076-6.077L32 36.846z" fill="#fff"/>
 <path d="m3.998 45.998v1c0 7.203 5.8 13.004 13.004 13.004h29.996c7.203 0 13.004-5.8 13.004-13.004v-1c0 7.203-5.8 13.002-13.004 13.002h-29.996a12.975 12.975 0 0 1-13.004-13.002z" opacity=".15"/>
 <path d="m3.998 18.004v-1c0-7.203 5.8-13.004 13.004-13.004h29.996c7.203 0 13.004 5.8 13.004 13.004v1c0-7.203-5.8-13.002-13.004-13.002h-29.996a12.975 12.975 0 0 0-13.004 13.002z" fill="#fff" opacity=".15"/>
</svg>
